X:539
T:Miller Lads
R:Strathspey
B:The Athole Collection
M:C
L:1/8
K:F
A|F<F A2 F<FA<c|G>GA>c d2 d<f|1 F<F A2 F<F A>c|G<G A>F D2D:|2
f>ga>c A>GF>A|G<G A>F D2D||
e|~f>c d/c/B/A/ f<c c>a|~f<c c>A d2 d>e|1 f>ga>c A>GF>A|G>GA>F D2D:|2
f>a g<a A>G F<A|G<G A>F D2D||

